X:1
T:Title
%%score { ( 1 4 ) | ( 2 3 ) }
L:1/8
M:6/8
K:Eb
V:1 treble nm="Grand Piano, Piano"
V:4 treble 
V:2 bass 
V:3 bass 
V:1
 z3 z2[Q:1/4=100] C | C2 [EG] [EG]2 F | [FA]3- [FA]2 G | [EG]2 F AGF | [CE]6 | .F3 z3 | D3- D2 G | %7
 [DG]2 D E2 D | C6 | E2- [Ec] =B2 d | c3- c2 e | d2 c B2 A | [EG]6 | E2- [Ec] =B2 d | c3- c2 e | %15
 d2 c B2 A | [EG]6 | c2 G z DC | D2 E G2 D | [DG]2 F E2 D | C6 |] %21
V:2
 z6 | C,E,G, C,E,G, | C,F,A, C,F,A, | C,E,G, C-[F,C-][A,C] | C,E,G, z2 F | C,F,A, C,F,A, | %6
 z3 =B,3 | =B,,F,G, B,,F,G, | C,E,G, z2 G | C,E,G, D,F,G, | C,E,G, CG,E, | D,F,A, D,F,A, | %12
 z3[K:treble] C3 | C,E,G, D,F,G, | C,E,G, CG,E, | D,F,A, D,F,A, | z3[K:treble] C3 | C,E,G, C,D,E, | %18
 =B,,F,G, B,,F,G, | D,G,F, G,E,F, | [C,E,G,]6 |] %21
V:3
 x6 | x6 | x6 | z3 .C,3 | z3 C,3 | x6 | =B,,F,G, z2 D | x6 | z3 C,3 | x6 | x6 | x6 | %12
 C,E,G,[K:treble] z2 G | x6 | x6 | x6 | C,E,G,[K:treble] z2 G | x6 | x6 | x6 | x6 |] %21
V:4
 x6 | x6 | x6 | x6 | x6 | C2- [C-E] [C-G][C-F][CE] | x6 | x6 | x6 | .G3 F3 | E6 | F6 | x6 | %13
 .G3 F3 | E6 | F6 | x6 | E3 E3 | x6 | x6 | x6 |] %21

